X: 56
I: linebreak $
T: Lady Lie Near Me
T: longways for as many as will
P: 
C: 
N: 
M: 3/4
L: 1/8
K: F major
P: A
 |: "F"ABc2A2 | "F"G2A2F2 | "Bb"d2c2f2 | "C"d4c2 :: 
P: B
"F"f2f2c2 | "F"f2f2g2 | 
"F"a4g2 | "F"a2a2g2 | "Dm"f3ga2 | "F"c2A4 | "C"G4"F"F2 :| 

